X: 185
T: No_93_I_Am_Walking.krn
N: Derived from No_93_I_Am_Walking.krn
%%abc-version 2.0
%%abcx-abcm2ps-target-version 5.9.1 (29 Sep 2008)
%%abc-creator hum2abc beta
%%abcx-conversion-date 2019/03/15 08:29:13
%%humdrum-veritas 4088412777
%%humdrum-veritas-data 1119214541
%%linebreak <none>
%%barnumbers 0
L: 1/8
M: 2/4
%%staves {1 2}
V: 1 clef=bass
V: 2 clef=bass
K: Gb
[V:1] [K:clef=bass][M:2/4]E2EC | 
[V:2] [K:clef=bass][M:2/4]G,,G,, G,,G,, | 
[V:1] B,3/C/ CB, ||  
[V:2] G,,G,, G,,G,, ||  
[V:1] [M:3/4]__B,3/B,/ B,7//C// C_B, ||  
[V:2] [M:3/4]z6 ||  
[V:1] [M:2/4]B,3/B,/ B,A, | 
[V:2] [M:2/4]z4 | 
[V:1] G,3/A,/A,2 | 
[V:2] z4 | 
[V:1] B,/B,/B,/B,/ B,/(B,/8A,/8)G,/G,/ ||  
[V:2] z4 ||  
[V:1] [M:3/4]E,3/E,/E,2(3G,G,G, ||  
[V:2] [M:3/4]z6 ||  
[V:1] [M:2/4]E,3/E,/ D,D, ||  
[V:2] [M:2/4]z4 ||  
[V:1] [M:3/4]B,,3/B,,/B,,2(3D,D,D, ||  
[V:2] [M:3/4]z6 ||  
[V:1] [M:2/4]B,,3/B,,/ B,,B,, ||  
[V:2] [M:2/4]z4 ||  
[V:1] [M:3/4]B,,3B,,B,,2 |]  
[V:2] [M:3/4]z6 |]  



